X:474
T:Sinklars Visa
Z:Jack Campin, http://www.campin.me.uk/
F:Jack Campin's Nine-Note Tunebook
% last edit 26-02-2013
G:old Norse ballad
M:C
L:1/8
K:GMin
D|G2 G2  B2  A>G|^F2 F2 F2 z
D|G2 G>A B2  B>c| d4    D2 z
A|B2 B2  d2  c>B| A2 A2 A3
c|B2 A>G G2 ^F>G| A4    G2 z|]

